src/asset/24px/angle-right-small.svg

<svg width="24" height="24" viewBox="0 0 24 24" fill="none" xmlns="http://www.w3.org/2000/svg">
<path fill-rule="evenodd" clip-rule="evenodd" d="M10.2832 7.29289C9.90561 7.68342 9.90561 8.31658 10.2832 8.70711L12.7832 11.2929C13.1607 11.6834 13.1607 12.3166 12.7832 12.7071L10.2832 15.2929C9.90561 15.6834 9.90561 16.3166 10.2832 16.7071C10.6607 17.0976 11.2729 17.0976 11.6505 16.7071L14.1505 14.1213C15.2832 12.9497 15.2832 11.0503 14.1505 9.87868L11.6505 7.29289C11.2729 6.90237 10.6607 6.90237 10.2832 7.29289Z" fill="#808080"/>
</svg>

<svg width="24" height="24" fill="none" xmlns="http://www.w3.org/2000/svg"><path fill-rule="evenodd" clip-rule="evenodd" d="M10.283 7.293a1.024 1.024 0 000 1.414l2.5 2.586c.378.39.378 1.024 0 1.414l-2.5 2.586a1.024 1.024 0 000 1.414c.378.39.99.39 1.367 0l2.5-2.586a3.073 3.073 0 000-4.242l-2.5-2.586a.944.944 0 00-1.367 0z" fill="gray"/></svg>
